app/img/photos/text-vert.svg

<svg width="296" height="1422" viewBox="0 0 296 1422" fill="none" xmlns="http://www.w3.org/2000/svg"><path d="M137 1377.54H36.56v38.34H11v-104.4h25.56v38.34H137v27.72zM11 1181.62h126v27.36H54.38l82.62 55.08v26.1H11v-27.36h82.62L11 1207.36v-25.74zm126-30.33H11v-105.12h126v27.72H36.02v49.68H137v27.72zm-16.74-244.428c12.6 12.72 18.9 28.68 18.9 47.88 0 19.2-6.3 35.16-18.9 47.878-12.6 12.6-28.02 18.9-46.26 18.9-18.12 0-33.48-6.36-46.08-19.08-12.72-12.838-19.08-28.858-19.08-48.058s6.3-35.1 18.9-47.7c12.6-12.72 28.02-19.08 46.26-19.08 18.12 0 33.54 6.42 46.26 19.26zm-18.18 74.88c7.68-7.2 11.52-16.32 11.52-27.36s-3.78-20.1-11.34-27.18c-7.68-7.08-17.1-10.62-28.26-10.62-11.04 0-20.4 3.6-28.08 10.8-7.68 7.2-11.52 16.32-11.52 27.36s3.84 20.1 11.52 27.18c7.56 7.08 16.92 10.62 28.08 10.62 11.04 0 20.4-3.6 28.08-10.8zM36.02 835.293H137v27.72H11v-88.02h25.02v60.3zM137 755.435H11v-51.48c0-14.88 4.02-26.64 12.06-35.28 8.04-8.64 18.66-12.96 31.86-12.96 14.04 0 24.96 4.8 32.76 14.4 7.68 9.6 11.52 21.78 11.52 36.54v21.06H137v27.72zm-62.46-27.72v-21.96c0-6.84-1.8-12.18-5.4-16.02-3.6-3.96-8.28-5.94-14.04-5.94-6.12 0-10.8 1.98-14.04 5.94-3.36 3.96-5.04 9.48-5.04 16.56v21.42h38.52zM137 646L10.1 592v-25.56l126.9-54v28.98l-28.26 11.52v53.28L137 617.74V646zm-52.74-49.68v-33.48L43.4 579.58l40.86 16.74zM42.32 410.373h61.38c0-10.2-2.76-18.36-8.28-24.48-5.64-6.24-13.14-9.36-22.5-9.36-9.24 0-16.62 3.12-22.14 9.36-5.64 6.12-8.46 14.28-8.46 24.48zm99.72 0v27.72h-13.68c0 19.08-5.22 34.26-15.66 45.54-10.56 11.28-24 16.92-40.32 16.92-16.08 0-29.22-5.64-39.42-16.92-10.2-11.28-15.3-26.46-15.3-45.54H6.14v-27.72h11.52c0-18.96 5.16-34.08 15.48-45.36 10.2-11.4 23.34-17.1 39.42-17.1 16.2 0 29.58 5.64 40.14 16.92 10.44 11.28 15.66 26.46 15.66 45.54h13.68zm-38.34 27.72H42.32c0 10.2 2.82 18.42 8.46 24.66 5.52 6.24 12.9 9.36 22.14 9.36 9.36 0 16.86-3.12 22.5-9.36 5.52-6.24 8.28-14.46 8.28-24.66zM11 216.758h126v27.36H54.38l82.62 55.08v26.1H11v-27.36h82.62L11 242.498v-25.74zm0-130.047h126v27.72H96.68v21.78l40.32 27v32.4l-45-30.78c-6.72 18-19.86 27-39.42 27-12.96 0-23.1-4.2-30.42-12.6-7.44-8.52-11.16-20.16-11.16-34.92v-57.6zm61.2 55.8v-28.08H36.02v27.54c0 6.84 1.56 12.18 4.68 16.02 3.12 3.84 7.68 5.76 13.68 5.76 5.4 0 9.72-1.86 12.96-5.58 3.24-3.84 4.86-9.06 4.86-15.66zM182 364.06v-5.39h-9.835v-9.94H182v-5.39h-24.5v5.39h9.695v9.94H157.5v5.39H182zm0-24.492v-5.495l-5.495-2.24v-10.36l5.495-2.24v-5.635l-24.675 10.5v4.97l24.675 10.5zm-10.255-9.66l-7.945-3.255 7.945-3.255v6.51zM157.5 276.182v5.39h19.635v8.75H157.5v5.39h19.635v8.715H157.5v5.39H182v-33.635h-24.5zm0-26.982v5.005l16.065 10.78H157.5v5.32H182v-5.075l-16.065-10.71H182v-5.32h-24.5zm12.95-26.75l-12.95 6.65v6.02l18.34-9.8c1.505.98 1.96 2.1 1.96 3.08 0 .945-.21 1.925-.805 2.905l3.955 2.1c.875-1.54 1.435-3.185 1.435-5.285 0-3.43-1.68-5.88-5.95-8.015L157.5 210.69v5.845l12.95 5.915zm11.97-26.823c0-4.725-1.47-7.525-4.165-10.045l-3.675 3.43c1.75 1.925 2.87 3.64 2.87 6.44 0 4.2-3.5 7.105-7.7 7.105-4.27 0-7.7-2.975-7.7-7.105 0-2.8 1.015-4.41 2.73-6.3l-3.71-3.22c-2.24 2.275-3.99 4.865-3.99 9.485 0 7.525 5.705 12.775 12.67 12.775 7.105 0 12.67-5.355 12.67-12.565zm-24.92-17.615h5.075c13.195 0 15.05 1.645 15.05 4.55 0 .35-.035.595-.07.84l4.445.35c.175-.665.315-1.96.315-2.835 0-5.6-3.675-7.945-18.095-7.945h-1.855v-7.07H182v-5.39h-24.5v17.5zm12.95-33.731l-12.95 6.65v6.02l18.34-9.8c1.505.98 1.96 2.1 1.96 3.08 0 .945-.21 1.925-.805 2.905l3.955 2.1c.875-1.54 1.435-3.185 1.435-5.285 0-3.43-1.68-5.88-5.95-8.015l-18.935-9.415v5.845l12.95 5.915zm-8.085-20.733v-11.725H157.5v17.115H182v-5.39h-19.635zM157.5 86.915v5.005l16.065 10.78H157.5v5.32H182v-5.075l-16.065-10.71H182v-5.32h-24.5z" fill="#fff" fill-opacity=".2"/><path fill="#8D00C9" d="M294 496h2v561h-2z"/><path fill="#C4C4C4" d="M294 1095h2v175h-2z"/><path fill="#8D00C9" d="M232 823h2v561h-2z"/><path fill="#C4C4C4" d="M294 0h2v408h-2zm-62 663h2v138h-2z"/><path fill="#8D00C9" d="M232 364h2v227h-2z"/></svg>

<svg width="296" height="1422" viewBox="0 0 296 1422" fill="none" xmlns="http://www.w3.org/2000/svg">
<path d="M137 1377.54L36.56 1377.54L36.56 1415.88L11 1415.88L11 1311.48L36.56 1311.48L36.56 1349.82L137 1349.82L137 1377.54ZM11 1181.62L137 1181.62L137 1208.98L54.38 1208.98L137 1264.06L137 1290.16L11 1290.16L11 1262.8L93.62 1262.8L11 1207.36L11 1181.62ZM137 1151.29L11 1151.29L11 1046.17L137 1046.17L137 1073.89L36.02 1073.89L36.02 1123.57L137 1123.57L137 1151.29ZM120.26 906.862C132.86 919.582 139.16 935.542 139.16 954.742C139.16 973.942 132.86 989.902 120.26 1002.62C107.66 1015.22 92.24 1021.52 74 1021.52C55.88 1021.52 40.52 1015.16 27.92 1002.44C15.2 989.602 8.83998 973.582 8.83998 954.382C8.83998 935.182 15.14 919.282 27.74 906.682C40.34 893.962 55.76 887.602 74 887.602C92.12 887.602 107.54 894.022 120.26 906.862ZM102.08 981.742C109.76 974.542 113.6 965.422 113.6 954.382C113.6 943.342 109.82 934.282 102.26 927.202C94.58 920.122 85.16 916.582 74 916.582C62.96 916.582 53.6 920.182 45.92 927.382C38.24 934.582 34.4 943.702 34.4 954.742C34.4 965.782 38.24 974.842 45.92 981.922C53.48 989.002 62.84 992.542 74 992.542C85.04 992.542 94.4 988.942 102.08 981.742ZM36.02 835.293L137 835.293L137 863.013L11 863.013L11 774.993L36.02 774.993L36.02 835.293ZM137 755.435L11 755.435L11 703.955C11 689.075 15.02 677.315 23.06 668.675C31.1 660.035 41.72 655.715 54.92 655.715C68.96 655.715 79.88 660.515 87.68 670.115C95.36 679.715 99.2 691.895 99.2 706.655L99.2 727.715L137 727.715L137 755.435ZM74.54 727.715L74.54 705.755C74.54 698.915 72.74 693.575 69.14 689.735C65.54 685.775 60.86 683.795 55.1 683.795C48.98 683.795 44.3 685.775 41.06 689.735C37.7 693.695 36.02 699.215 36.02 706.295L36.02 727.715L74.54 727.715ZM137 646L10.1 592L10.1 566.44L137 512.44L137 541.42L108.74 552.94L108.74 606.22L137 617.74L137 646ZM84.26 596.32L84.26 562.84L43.4 579.58L84.26 596.32ZM42.32 410.373L103.7 410.373C103.7 400.173 100.94 392.013 95.42 385.893C89.78 379.653 82.28 376.533 72.92 376.533C63.68 376.533 56.2999 379.653 50.7799 385.893C45.14 392.013 42.32 400.173 42.32 410.373ZM142.04 410.373L142.04 438.093L128.36 438.093C128.36 457.173 123.14 472.353 112.7 483.633C102.14 494.913 88.7 500.553 72.38 500.553C56.3 500.553 43.16 494.913 32.96 483.633C22.76 472.353 17.6599 457.173 17.6599 438.093L6.13995 438.093L6.13995 410.373L17.6599 410.373C17.6599 391.413 22.8199 376.293 33.1399 365.013C43.34 353.613 56.48 347.913 72.56 347.913C88.76 347.913 102.14 353.553 112.7 364.833C123.14 376.113 128.36 391.293 128.36 410.373L142.04 410.373ZM103.7 438.093L42.32 438.093C42.32 448.293 45.14 456.513 50.78 462.753C56.3 468.993 63.68 472.113 72.92 472.113C82.28 472.113 89.78 468.993 95.42 462.753C100.94 456.513 103.7 448.293 103.7 438.093ZM10.9999 216.758L137 216.758L137 244.118L54.3799 244.118L137 299.198L137 325.298L10.9999 325.298L10.9999 297.938L93.6199 297.938L10.9999 242.498L10.9999 216.758ZM10.9999 86.7108L137 86.7108L137 114.431L96.6799 114.431L96.6799 136.211L137 163.211L137 195.611L91.9999 164.831C85.2799 182.831 72.1399 191.831 52.5799 191.831C39.6199 191.831 29.4799 187.631 22.1599 179.231C14.7199 170.711 10.9999 159.071 10.9999 144.311L10.9999 86.7108ZM72.1999 142.511L72.1999 114.431L36.0199 114.431L36.0199 141.971C36.0199 148.811 37.5799 154.151 40.6999 157.991C43.8199 161.831 48.3799 163.751 54.3799 163.751C59.7799 163.751 64.0999 161.891 67.3399 158.171C70.5799 154.331 72.1999 149.111 72.1999 142.511Z" fill="white" fill-opacity="0.2"/>
<path d="M182 364.06L182 358.67L172.165 358.67L172.165 348.73L182 348.73L182 343.34L157.5 343.34L157.5 348.73L167.195 348.73L167.195 358.67L157.5 358.67L157.5 364.06L182 364.06ZM182 339.568L182 334.073L176.505 331.833L176.505 321.473L182 319.233L182 313.598L157.325 324.098L157.325 329.068L182 339.568ZM171.745 329.908L163.8 326.653L171.745 323.398L171.745 329.908ZM157.5 276.182L157.5 281.572L177.135 281.572L177.135 290.322L157.5 290.322L157.5 295.712L177.135 295.712L177.135 304.427L157.5 304.427L157.5 309.817L182 309.817L182 276.182L157.5 276.182ZM157.5 249.2L157.5 254.205L173.565 264.985L157.5 264.985L157.5 270.305L182 270.305L182 265.23L165.935 254.52L182 254.52L182 249.2L157.5 249.2ZM170.45 222.45L157.5 229.1L157.5 235.12L175.84 225.32C177.345 226.3 177.8 227.42 177.8 228.4C177.8 229.345 177.59 230.325 176.995 231.305L180.95 233.405C181.825 231.865 182.385 230.22 182.385 228.12C182.385 224.69 180.705 222.24 176.435 220.105L157.5 210.69L157.5 216.535L170.45 222.45ZM182.42 195.627C182.42 190.902 180.95 188.102 178.255 185.582L174.58 189.012C176.33 190.937 177.45 192.652 177.45 195.452C177.45 199.652 173.95 202.557 169.75 202.557C165.48 202.557 162.05 199.582 162.05 195.452C162.05 192.652 163.065 191.042 164.78 189.152L161.07 185.932C158.83 188.207 157.08 190.797 157.08 195.417C157.08 202.942 162.785 208.192 169.75 208.192C176.855 208.192 182.42 202.837 182.42 195.627ZM157.5 178.012L162.575 178.012C175.77 178.012 177.625 179.657 177.625 182.562C177.625 182.912 177.59 183.157 177.555 183.402L182 183.752C182.175 183.087 182.315 181.792 182.315 180.917C182.315 175.317 178.64 172.972 164.22 172.972L162.365 172.972L162.365 165.902L182 165.902L182 160.512L157.5 160.512L157.5 178.012ZM170.45 144.281L157.5 150.931L157.5 156.951L175.84 147.151C177.345 148.131 177.8 149.251 177.8 150.231C177.8 151.176 177.59 152.156 176.995 153.136L180.95 155.236C181.825 153.696 182.385 152.051 182.385 149.951C182.385 146.521 180.705 144.071 176.435 141.936L157.5 132.521L157.5 138.366L170.45 144.281ZM162.365 123.548L162.365 111.823L157.5 111.823L157.5 128.938L182 128.938L182 123.548L162.365 123.548ZM157.5 86.915L157.5 91.92L173.565 102.7L157.5 102.7L157.5 108.02L182 108.02L182 102.945L165.935 92.235L182 92.235L182 86.915L157.5 86.915Z" fill="white" fill-opacity="0.2"/>
<rect x="294" y="496" width="2" height="561" fill="#8D00C9"/>
<rect x="294" y="1095" width="2" height="175" fill="#C4C4C4"/>
<rect x="232" y="823" width="2" height="561" fill="#8D00C9"/>
<rect x="294" width="2" height="408" fill="#C4C4C4"/>
<rect x="232" y="663" width="2" height="138" fill="#C4C4C4"/>
<rect x="232" y="364" width="2" height="227" fill="#8D00C9"/>
</svg>
